svg/color/fine.svg

<?xml version="1.0" encoding="UTF-8" ?>
<!DOCTYPE svg PUBLIC "-//W3C//DTD SVG 1.1//EN" "http://www.w3.org/Graphics/SVG/1.1/DTD/svg11.dtd">
<svg width="250pt" height="250pt" viewBox="0 0 250 250" version="1.1" xmlns="http://www.w3.org/2000/svg">
<g id="#ffffffff">
<path fill="#ffffff" opacity="1.00" d=" M 0.00 0.00 L 250.00 0.00 L 250.00 250.00 L 0.00 250.00 L 0.00 0.00 M 121.96 53.01 C 104.34 63.03 86.78 73.16 69.17 83.21 C 67.00 84.32 65.17 86.44 65.28 89.00 C 65.23 114.35 65.25 139.70 65.27 165.05 C 65.14 167.55 66.78 169.80 68.94 170.91 C 76.80 175.43 84.70 179.89 92.54 184.45 C 94.23 185.38 95.91 186.68 97.95 186.61 C 101.47 186.77 104.79 183.54 104.49 179.98 C 104.54 155.95 104.44 131.92 104.54 107.89 C 120.15 99.01 135.73 90.08 151.29 81.12 C 155.98 83.80 160.65 86.51 165.37 89.14 C 150.94 97.47 136.44 105.69 122.01 114.00 C 119.86 115.16 118.34 117.48 118.54 119.98 C 118.51 129.96 118.54 139.94 118.52 149.93 C 118.48 152.11 119.72 154.25 121.63 155.31 C 138.39 164.91 155.17 174.50 171.93 184.12 C 174.14 185.32 176.36 187.13 179.05 186.72 C 182.32 186.43 184.97 183.35 184.74 180.07 C 184.75 170.35 184.76 160.62 184.73 150.90 C 184.84 148.15 183.22 145.54 180.82 144.25 C 175.32 141.08 169.81 137.90 164.26 134.81 C 170.01 131.36 175.92 128.18 181.68 124.75 C 183.70 123.64 184.85 121.30 184.74 119.02 C 184.75 109.02 184.76 99.01 184.73 89.01 C 184.86 86.72 183.40 84.65 181.47 83.57 C 163.85 73.50 146.24 63.41 128.63 53.32 C 126.66 52.06 124.03 51.83 121.96 53.01 Z" />
<path fill="#ffffff" opacity="1.00" d=" M 78.18 92.91 C 93.76 83.90 109.42 75.04 125.00 66.05 C 129.44 68.65 133.95 71.13 138.37 73.77 C 118.30 85.22 98.22 96.66 78.23 108.23 C 78.16 103.12 78.22 98.02 78.18 92.91 Z" />
<path fill="#ffffff" opacity="1.00" d=" M 131.48 123.38 C 144.92 115.69 158.37 108.01 171.80 100.28 C 171.81 105.39 171.80 110.50 171.80 115.60 C 158.39 123.37 144.86 130.93 131.50 138.77 C 131.44 133.64 131.48 128.51 131.48 123.38 Z" />
<path fill="#ffffff" opacity="1.00" d=" M 78.21 123.00 C 82.64 120.43 87.14 117.96 91.52 115.30 C 91.58 133.23 91.58 151.17 91.53 169.11 C 87.15 166.45 82.69 163.95 78.23 161.45 C 78.16 148.63 78.21 135.82 78.21 123.00 Z" />
<path fill="#ffffff" opacity="1.00" d=" M 137.90 149.87 C 142.35 147.28 146.85 144.76 151.29 142.15 C 158.12 146.07 164.97 149.97 171.80 153.91 C 171.80 159.02 171.82 164.14 171.77 169.26 C 160.52 162.73 149.24 156.24 137.90 149.87 Z" />
</g>
<g id="#030013ff">
<path fill="#030013" opacity="1.00" d=" M 121.96 53.01 C 124.03 51.83 126.66 52.06 128.63 53.32 C 146.24 63.41 163.85 73.50 181.47 83.57 C 183.40 84.65 184.86 86.72 184.73 89.01 C 184.76 99.01 184.75 109.02 184.74 119.02 C 184.85 121.30 183.70 123.64 181.68 124.75 C 175.92 128.18 170.01 131.36 164.26 134.81 C 169.81 137.90 175.32 141.08 180.82 144.25 C 183.22 145.54 184.84 148.15 184.73 150.90 C 184.76 160.62 184.75 170.35 184.74 180.07 C 184.97 183.35 182.32 186.43 179.05 186.72 C 176.36 187.13 174.14 185.32 171.93 184.12 C 155.17 174.50 138.39 164.91 121.63 155.31 C 119.72 154.25 118.48 152.11 118.52 149.93 C 118.54 139.94 118.51 129.96 118.54 119.98 C 118.34 117.48 119.86 115.16 122.01 114.00 C 136.44 105.69 150.94 97.47 165.37 89.14 C 160.65 86.51 155.98 83.80 151.29 81.12 C 135.73 90.08 120.15 99.01 104.54 107.89 C 104.44 131.92 104.54 155.95 104.49 179.98 C 104.79 183.54 101.47 186.77 97.95 186.61 C 95.91 186.68 94.23 185.38 92.54 184.45 C 84.70 179.89 76.80 175.43 68.94 170.91 C 66.78 169.80 65.14 167.55 65.27 165.05 C 65.25 139.70 65.23 114.35 65.28 89.00 C 65.17 86.44 67.00 84.32 69.17 83.21 C 86.78 73.16 104.34 63.03 121.96 53.01 M 78.18 92.91 C 78.22 98.02 78.16 103.12 78.23 108.23 C 98.22 96.66 118.30 85.22 138.37 73.77 C 133.95 71.13 129.44 68.65 125.00 66.05 C 109.42 75.04 93.76 83.90 78.18 92.91 M 131.48 123.38 C 131.48 128.51 131.44 133.64 131.50 138.77 C 144.86 130.93 158.39 123.37 171.80 115.60 C 171.80 110.50 171.81 105.39 171.80 100.28 C 158.37 108.01 144.92 115.69 131.48 123.38 M 78.21 123.00 C 78.21 135.82 78.16 148.63 78.23 161.45 C 82.69 163.95 87.15 166.45 91.53 169.11 C 91.58 151.17 91.58 133.23 91.52 115.30 C 87.14 117.96 82.64 120.43 78.21 123.00 M 137.90 149.87 C 149.24 156.24 160.52 162.73 171.77 169.26 C 171.82 164.14 171.80 159.02 171.80 153.91 C 164.97 149.97 158.12 146.07 151.29 142.15 C 146.85 144.76 142.35 147.28 137.90 149.87 Z" />
</g>
</svg>

<?xml version="1.0" encoding="utf-8"?>
<!-- Generator: Adobe Illustrator 26.0.3, SVG Export Plug-In . SVG Version: 6.00 Build 0)  -->
<svg version="1.1" id="Layer_1" xmlns="http://www.w3.org/2000/svg" xmlns:xlink="http://www.w3.org/1999/xlink" x="0px" y="0px"
	 viewBox="0 0 250 250" style="enable-background:new 0 0 250 250;" xml:space="preserve">
<style type="text/css">
	.st0{fill:#FFFFFF;}
	.st1{fill:#030013;}
</style>
<g id="_x23_ffffffff">
	<path class="st0" d="M78.2,92.9c15.6-9,31.2-17.9,46.8-26.9c4.4,2.6,8.9,5.1,13.4,7.7c-20.1,11.5-40.1,22.9-60.1,34.5
		C78.2,103.1,78.2,98,78.2,92.9z"/>
	<path class="st0" d="M131.5,123.4c13.4-7.7,26.9-15.4,40.3-23.1c0,5.1,0,10.2,0,15.3c-13.4,7.8-26.9,15.3-40.3,23.2
		C131.4,133.6,131.5,128.5,131.5,123.4z"/>
	<path class="st0" d="M78.2,123c4.4-2.6,8.9-5,13.3-7.7c0.1,17.9,0.1,35.9,0,53.8c-4.4-2.7-8.8-5.2-13.3-7.7
		C78.2,148.6,78.2,135.8,78.2,123z"/>
	<path class="st0" d="M137.9,149.9c4.5-2.6,9-5.1,13.4-7.7c6.8,3.9,13.7,7.8,20.5,11.8c0,5.1,0,10.2,0,15.3
		C160.5,162.7,149.2,156.2,137.9,149.9z"/>
</g>
<g id="_x23_030013ff">
	<path class="st1" d="M122,53c2.1-1.2,4.7-0.9,6.7,0.3c17.6,10.1,35.2,20.2,52.8,30.2c1.9,1.1,3.4,3.2,3.3,5.4c0,10,0,20,0,30
		c0.1,2.3-1,4.6-3.1,5.7c-5.8,3.4-11.7,6.6-17.4,10.1c5.6,3.1,11.1,6.3,16.6,9.4c2.4,1.3,4,3.9,3.9,6.6c0,9.7,0,19.5,0,29.2
		c0.2,3.3-2.4,6.4-5.7,6.6c-2.7,0.4-4.9-1.4-7.1-2.6c-16.8-9.6-33.5-19.2-50.3-28.8c-1.9-1.1-3.1-3.2-3.1-5.4c0-10,0-20,0-29.9
		c-0.2-2.5,1.3-4.8,3.5-6c14.4-8.3,28.9-16.5,43.4-24.9c-4.7-2.6-9.4-5.3-14.1-8c-15.6,9-31.1,17.9-46.7,26.8
		c-0.1,24,0,48.1-0.1,72.1c0.3,3.6-3,6.8-6.5,6.6c-2,0.1-3.7-1.2-5.4-2.2c-7.8-4.6-15.7-9-23.6-13.5c-2.2-1.1-3.8-3.4-3.7-5.9
		c0-25.4,0-50.7,0-76.1c-0.1-2.6,1.7-4.7,3.9-5.8C86.8,73.2,104.3,63,122,53 M78.2,92.9c0,5.1,0,10.2,0.1,15.3
		c20-11.6,40.1-23,60.1-34.5c-4.4-2.6-8.9-5.1-13.4-7.7C109.4,75,93.8,83.9,78.2,92.9 M131.5,123.4c0,5.1,0,10.3,0,15.4
		c13.4-7.8,26.9-15.4,40.3-23.2c0-5.1,0-10.2,0-15.3C158.4,108,144.9,115.7,131.5,123.4 M78.2,123c0,12.8,0,25.6,0,38.4
		c4.5,2.5,8.9,5,13.3,7.7c0.1-17.9,0.1-35.9,0-53.8C87.1,118,82.6,120.4,78.2,123 M137.9,149.9c11.3,6.4,22.6,12.9,33.9,19.4
		c0.1-5.1,0-10.2,0-15.3c-6.8-3.9-13.7-7.8-20.5-11.8C146.9,144.8,142.4,147.3,137.9,149.9z"/>
</g>
</svg>
